X: 604
T: Fisherman's Song., The
T: a.bran iastadoire.
R:air
N:"Tenderly."
B:O'Neill's 604
Z:"Transcribed by John Walsh (walsh@math.ubc.ca)
M:3/8
L:1/8
%Q:80
K:D
A|dd (d/e/)|fe d/>c/|(AG) (A3/4B/4)|=c2 (A/^c/)|
dd ((3e/f/g/)|ed (d/c/)|A(G/E/) D/>E/|D2||
(F/G/)|AB (=c/B/)|(A/F/) D (F/>G/)|A/B/ =cB|A2 ((3A/B/c/)|
dd ((3e/f/g/)|fe (d/c/)|A(G/E/) D/>E/|D2||


